packages/icons/src/emoji/svg/bill.svg

<svg width="120" height="120" viewBox="0 0 120 120" fill="none" xmlns="http://www.w3.org/2000/svg">
<path d="M116.1 37.6782H3.89102C2.18477 37.6782 0.806641 39.0563 0.806641 40.7626V95.6438C0.806641 97.3407 2.18477 98.7282 3.89102 98.7282H116.1C117.797 98.7282 119.185 97.3501 119.185 95.6438V40.7626C119.185 39.0657 117.807 37.6782 116.1 37.6782Z" fill="#78909C"/>
<path d="M116.1 21.272H3.89102C2.18477 21.272 0.806641 22.6501 0.806641 24.3563V79.2376C0.806641 80.9345 2.18477 82.322 3.89102 82.322H116.1C117.797 82.322 119.185 80.9438 119.185 79.2376V24.3563C119.185 22.6595 117.807 21.272 116.1 21.272Z" fill="#B1E0CF"/>
<path d="M22.9594 68.7658C23.7562 69.0096 24.9375 69.3283 26.3531 69.6002V72.3096C26.3531 72.7033 26.6812 73.0314 27.075 73.0314H32.85C33.2531 73.0314 33.5719 72.7033 33.5719 72.3096V70.0596C38.7 69.6377 42.5437 67.4158 44.7281 63.5439C46.8375 59.8127 46.0312 55.9408 42.4969 52.9033C40.2656 51.1314 36.7875 49.5939 33.5719 48.3471V42.4127C35.7188 43.1064 37.65 43.8002 39.2156 44.4658C39.4781 44.5689 39.7687 44.4846 39.9281 44.2502L43.1062 39.4408L43.1906 38.9814L42.9 38.6064C41.0906 37.6314 37.3875 36.1314 33.5812 35.1658V31.6877C33.5812 31.4962 33.5052 31.3126 33.3698 31.1773C33.2344 31.0419 33.0508 30.9658 32.8594 30.9658H27.0844C26.8929 30.9658 26.7093 31.0419 26.5739 31.1773C26.4386 31.3126 26.3625 31.4962 26.3625 31.6877V34.2939C21.0094 34.5471 17.3625 36.4033 15.2719 39.9939C13.6313 42.8158 13.6313 45.9939 15.2719 48.2908C16.9969 50.7377 19.8 51.8346 23.3437 53.2127L23.8125 53.3908C24.6281 53.7002 25.5 54.0283 26.3625 54.3377V61.5564C22.5938 60.6565 19.0781 58.8377 18.4406 58.4064C18.3183 58.3235 18.169 58.29 18.0229 58.3126C17.8768 58.3352 17.7447 58.4123 17.6531 58.5283L13.8 63.5439L13.6875 63.9752L13.9125 64.3596C16.2375 66.0939 19.6219 67.7439 22.9594 68.7658ZM26.3531 41.3908V45.7596C24.7312 45.2346 23.7094 44.7002 23.8125 43.4346C23.925 42.1314 25.1719 41.6064 26.3531 41.3908ZM36 60.2814C35.625 61.2564 34.6687 61.7533 33.5719 62.0064V57.0283C34.7906 57.5721 35.7094 58.1439 36.0469 58.8658C36.2344 59.2689 36.2062 59.7283 36 60.2814Z" fill="#78909C"/>
<path d="M73.5938 19.397H94.2188V82.3126H73.5938V19.397Z" fill="#E0E0E0"/>
<path d="M73.5938 82.3218H94.2188V100.603H73.5938V82.3218Z" fill="#BDBDBD"/>
</svg>

<svg xmlns="http://www.w3.org/2000/svg" fill="none" aria-hidden="true" data-slot="icon" viewBox="0 0 120 120"><path fill="#78909C" d="M116.1 37.678H3.891a3.08 3.08 0 0 0-3.084 3.085v54.88a3.087 3.087 0 0 0 3.084 3.085H116.1a3.087 3.087 0 0 0 3.085-3.084V40.763a3.087 3.087 0 0 0-3.085-3.085"/><path fill="#B1E0CF" d="M116.1 21.272H3.891a3.08 3.08 0 0 0-3.084 3.084v54.882a3.087 3.087 0 0 0 3.084 3.084H116.1a3.087 3.087 0 0 0 3.085-3.084V24.356a3.087 3.087 0 0 0-3.085-3.084"/><path fill="#78909C" d="M22.96 68.766c.796.244 1.977.562 3.393.834v2.71c0 .393.328.721.722.721h5.775a.72.72 0 0 0 .722-.721v-2.25c5.128-.422 8.972-2.644 11.156-6.516 2.11-3.731 1.303-7.603-2.231-10.64-2.231-1.773-5.71-3.31-8.925-4.557v-5.934c2.147.693 4.078 1.387 5.644 2.053a.59.59 0 0 0 .712-.216l3.178-4.81.085-.459-.291-.375c-1.81-.975-5.512-2.475-9.319-3.44v-3.478a.72.72 0 0 0-.722-.722h-5.775a.72.72 0 0 0-.721.722v2.606c-5.354.253-9 2.11-11.091 5.7-1.64 2.822-1.64 6 0 8.297 1.725 2.447 4.528 3.544 8.072 4.922l.468.178c.816.31 1.688.637 2.55.947v7.218c-3.768-.9-7.284-2.718-7.921-3.15a.585.585 0 0 0-.788.122L13.8 63.544l-.113.431.226.385c2.325 1.734 5.709 3.384 9.046 4.406m3.393-27.375v4.369c-1.622-.525-2.644-1.06-2.54-2.325.112-1.304 1.359-1.829 2.54-2.044M36 60.28c-.375.975-1.331 1.472-2.428 1.725v-4.978c1.219.544 2.137 1.116 2.475 1.838.187.403.16.862-.047 1.415"/><path fill="#E0E0E0" d="M73.594 19.397h20.625v62.916H73.594z"/><path fill="#BDBDBD" d="M73.594 82.322h20.625v18.281H73.594z"/></svg>
